public/images/hashed/c24d999e49b75adf4057659dc90d3a19.svg

<svg xmlns="http://www.w3.org/2000/svg" width="80" height="80"><defs><linearGradient id="a" x1="0%" x2="100%" y1="100%" y2="0%"><stop offset="0%" stop-color="#B0084D"/><stop offset="100%" stop-color="#FF4F8B"/></linearGradient></defs><g fill="none" fill-rule="evenodd"><path fill="url(#a)" d="M0 0h80v80H0z"/><path fill="#FFF" d="M50.871 37.366c0 4.687-3.813 8.5-8.5 8.5-4.687 0-8.5-3.813-8.5-8.5 0-4.687 3.813-8.5 8.5-8.5 4.687 0 8.5 3.813 8.5 8.5Zm2 0c0-5.79-4.71-10.5-10.5-10.5s-10.5 4.71-10.5 10.5 4.71 10.5 10.5 10.5 10.5-4.71 10.5-10.5ZM47.91 62.418a1 1 0 0 0 .272-.744l-.183-3.201a21.686 21.686 0 0 0 5.266-2.182l2.135 2.394c.183.205.443.326.718.334a.94.94 0 0 0 .735-.293l6.849-6.848a1 1 0 0 0-.041-1.453l-2.402-2.142a21.672 21.672 0 0 0 2.178-5.26l3.212.184a.997.997 0 0 0 1.058-.998v-9.685a1.005 1.005 0 0 0-1.057-.999l-3.216.183a21.682 21.682 0 0 0-2.179-5.255l2.406-2.146a1 1 0 0 0 .041-1.453l-6.849-6.848a.96.96 0 0 0-.735-.293 1.004 1.004 0 0 0-.718.334l-2.153 2.413a21.608 21.608 0 0 0-5.248-2.176l.183-3.227a.997.997 0 0 0-.272-.743.998.998 0 0 0-.727-.314h-9.684a1.001 1.001 0 0 0-.998 1.057l.182 3.225a21.656 21.656 0 0 0-5.251 2.174l-2.15-2.409a1 1 0 0 0-.718-.334.978.978 0 0 0-.735.293l-6.849 6.848a1.002 1.002 0 0 0 .041 1.453l2.412 2.151a21.656 21.656 0 0 0-2.182 5.25l-3.219-.183a.998.998 0 0 0-1.057.999v9.685a1.001 1.001 0 0 0 1.059.998l3.951-.231-.117-1.997-2.893.17v-7.567l2.991.17c.488.024.923-.301 1.032-.777a19.68 19.68 0 0 1 2.565-6.176 1.002 1.002 0 0 0-.179-1.281l-2.241-1.999 5.352-5.351 1.997 2.239a1 1 0 0 0 1.279.179 19.704 19.704 0 0 1 6.178-2.556.999.999 0 0 0 .778-1.033L38.558 14h7.567l-.17 2.999a1 1 0 0 0 .777 1.033 19.614 19.614 0 0 1 6.174 2.559c.411.258.954.185 1.28-.18l2.001-2.243 5.352 5.351-2.235 1.994a1 1 0 0 0-.18 1.28 19.677 19.677 0 0 1 2.562 6.181 1.01 1.01 0 0 0 1.033.778l2.988-.17v7.568l-2.984-.171a1.007 1.007 0 0 0-1.034.778 19.676 19.676 0 0 1-2.561 6.185 1 1 0 0 0 .18 1.28l2.231 1.99-5.351 5.352-1.984-2.224a.997.997 0 0 0-1.28-.18 19.666 19.666 0 0 1-6.192 2.565 1 1 0 0 0-.777 1.033l.17 2.973h-7.534l.136-1.546-1.992-.176-.232 2.634a1 1 0 0 0 .996 1.088h9.684a.997.997 0 0 0 .727-.313Zm-10.809-7.864-1.375-1.452-12.511 11.854 1.375 1.452 12.511-11.854Zm-11.855-7.9-1.371-1.456L12.68 55.735l1.371 1.456 11.195-10.537ZM13.414 67.706 12 66.292l19.756-19.756 1.414 1.414-19.756 19.756Z"/></g></svg>

<?xml version="1.0" encoding="UTF-8"?>
<svg width="80px" height="80px" viewBox="0 0 80 80" version="1.1" xmlns="http://www.w3.org/2000/svg" xmlns:xlink="http://www.w3.org/1999/xlink">
    <!-- Generator: Sketch 64 (93537) - https://sketch.com -->
    <title>Icon-Architecture/64/Arch_AWS-App-Config_64</title>
    <desc>Created with Sketch.</desc>
    <defs>
        <linearGradient x1="0%" y1="100%" x2="100%" y2="0%" id="linearGradient-1">
            <stop stop-color="#B0084D" offset="0%"></stop>
            <stop stop-color="#FF4F8B" offset="100%"></stop>
        </linearGradient>
    </defs>
    <g id="Icon-Architecture/64/Arch_AWS-App-Config_64" stroke="none" stroke-width="1" fill="none" fill-rule="evenodd">
        <g id="Icon-Architecture-BG/64/Management-Governance" fill="url(#linearGradient-1)">
            <rect id="Rectangle" x="0" y="0" width="80" height="80"></rect>
        </g>
        <path d="M50.871,37.366 C50.871,42.053 47.058,45.866 42.371,45.866 C37.684,45.866 33.871,42.053 33.871,37.366 C33.871,32.679 37.684,28.866 42.371,28.866 C47.058,28.866 50.871,32.679 50.871,37.366 L50.871,37.366 Z M52.871,37.366 C52.871,31.576 48.161,26.866 42.371,26.866 C36.581,26.866 31.871,31.576 31.871,37.366 C31.871,43.156 36.581,47.866 42.371,47.866 C48.161,47.866 52.871,43.156 52.871,37.366 L52.871,37.366 Z M47.91,62.418 C48.1,62.218 48.197,61.949 48.182,61.674 L47.999,58.473 C49.846,57.979 51.611,57.248 53.265,56.291 L55.4,58.685 C55.583,58.89 55.843,59.011 56.118,59.019 C56.394,59.042 56.659,58.921 56.853,58.726 L63.702,51.878 C63.896,51.683 64.003,51.417 63.995,51.142 C63.987,50.867 63.866,50.608 63.661,50.425 L61.259,48.283 C62.214,46.631 62.944,44.868 63.437,43.023 L66.649,43.207 C66.934,43.223 67.193,43.124 67.393,42.936 C67.594,42.747 67.707,42.484 67.707,42.209 L67.707,32.524 C67.707,32.249 67.594,31.986 67.393,31.797 C67.194,31.608 66.921,31.51 66.65,31.525 L63.434,31.708 C62.941,29.867 62.211,28.106 61.255,26.453 L63.661,24.307 C63.866,24.124 63.987,23.865 63.995,23.589 C64.003,23.314 63.896,23.048 63.702,22.854 L56.853,16.006 C56.659,15.81 56.392,15.696 56.118,15.713 C55.843,15.721 55.584,15.842 55.4,16.047 L53.247,18.46 C51.597,17.505 49.838,16.776 47.999,16.284 L48.182,13.057 C48.197,12.783 48.1,12.513 47.91,12.314 C47.722,12.114 47.459,12 47.183,12 L37.499,12 C37.224,12 36.961,12.114 36.772,12.314 C36.583,12.513 36.485,12.783 36.501,13.057 L36.683,16.282 C34.844,16.773 33.084,17.502 31.432,18.456 L29.282,16.047 C29.099,15.842 28.84,15.721 28.564,15.713 C28.295,15.698 28.023,15.811 27.829,16.006 L20.98,22.854 C20.786,23.048 20.68,23.314 20.687,23.589 C20.695,23.864 20.816,24.124 21.021,24.307 L23.433,26.458 C22.476,28.109 21.745,29.869 21.251,31.708 L18.032,31.525 C17.759,31.509 17.488,31.608 17.289,31.797 C17.089,31.986 16.975,32.249 16.975,32.524 L16.975,42.209 C16.975,42.484 17.089,42.747 17.289,42.936 C17.489,43.125 17.761,43.229 18.034,43.207 L21.985,42.976 L21.868,40.979 L18.975,41.149 L18.975,33.582 L21.966,33.752 C22.454,33.776 22.889,33.451 22.998,32.975 C23.496,30.783 24.358,28.704 25.563,26.799 C25.824,26.386 25.748,25.844 25.384,25.518 L23.143,23.519 L28.495,18.168 L30.492,20.407 C30.817,20.771 31.359,20.846 31.771,20.586 C33.678,19.385 35.756,18.525 37.949,18.03 C38.427,17.922 38.756,17.485 38.727,16.997 L38.558,14 L46.125,14 L45.955,16.999 C45.927,17.487 46.256,17.924 46.732,18.032 C48.925,18.527 51.002,19.388 52.906,20.591 C53.317,20.849 53.86,20.776 54.186,20.411 L56.187,18.168 L61.539,23.519 L59.304,25.513 C58.939,25.839 58.863,26.38 59.124,26.793 C60.328,28.7 61.19,30.78 61.686,32.974 C61.795,33.451 62.237,33.776 62.719,33.752 L65.707,33.582 L65.707,41.15 L62.723,40.979 C62.237,40.954 61.798,41.28 61.689,41.757 C61.192,43.956 60.331,46.037 59.128,47.942 C58.867,48.355 58.943,48.897 59.308,49.222 L61.539,51.212 L56.188,56.564 L54.204,54.34 C53.878,53.973 53.336,53.899 52.924,54.16 C51.017,55.365 48.934,56.228 46.732,56.725 C46.256,56.833 45.927,57.27 45.955,57.758 L46.125,60.731 L38.591,60.731 L38.727,59.185 L36.735,59.009 L36.503,61.643 C36.478,61.923 36.572,62.199 36.762,62.407 C36.951,62.614 37.219,62.731 37.499,62.731 L47.183,62.731 C47.459,62.731 47.722,62.618 47.91,62.418 L47.91,62.418 Z M37.101,54.554 L35.726,53.102 L23.215,64.956 L24.59,66.408 L37.101,54.554 Z M25.246,46.654 L23.875,45.198 L12.68,55.735 L14.051,57.191 L25.246,46.654 Z M13.414,67.706 L12,66.292 L31.756,46.536 L33.17,47.95 L13.414,67.706 Z" id="AWS-App-Config_Icon_64_Squid" fill="#FFFFFF"></path>
    </g>
</svg>
